X:1
T:Title
%%score { ( 1 3 ) | ( 2 4 ) }
L:1/8
M:4/4
K:Eb
V:1 treble nm="Grand Piano"
V:3 treble 
V:2 bass 
V:4 bass 
V:1
 z4 z2 z[Q:1/4=100] E | G2 GG G2 G[FA] | [GB]2 [GB][GB] [Ac] [GB]2 E | G2 GG G2 G[FA] | %4
 [GB]2 [FA][EG] [EG] [DF]2 E | G2 GF E2 G[FA] | [GB]2 [GB][GB] c e3 | e2 Bc BG [DF]2 | E6 z2 | %9
 [Ge]2 [GB][Ac] [GB]G E2 | G6 z2 | [Ge]2 [GB][Ac] [GB][EG] [B,E]2 | [DF]6 z2 | G2 GF E2 G[FA] | %14
 [GB]2 [GB][GB] c e3 | e2 Bc BG [DF]2 |[M:7/8] E-E-E- E3 z |] %17
V:2
 z4 z2 z [E,G,] | [E,B,E]2 [E,B,E][E,B,E] [E,B,E]2 [E,B,E][E,B,] | %2
 [E,E]2 [E,E][E,E] [E,E] [E,E]2 [E,G,] | [E,B,E]2 [E,B,E][E,B,E] [E,B,E]2 [E,B,E][E,B,] | %4
 [E,B,]2 [D,B,][E,B,] [B,,B,] [B,,B,]2 [E,G,] | [E,B,E]2 [E,B,E][E,A,D] [E,G,]2 [E,B,E][E,B,] | %6
 [E,E]2 [E,E][E,E][K:treble] [A,EA] [A,CA]3 | [B,G]2 [B,EG][B,EA] [B,EG][K:bass][B,E] [B,,A,]2 | %8
 [E,G,]6 z2 | [E,B,]2 [E,E][E,E] [E,E][E,B,E] [E,G,B,]2 | E6 z2 | %11
 [E,B,]2 [E,E][E,E] [E,E][E,B,] [E,G,]2 | [B,,B,]2 B,,2 B,,2 z [E,G,] | %13
 [E,B,E]2 [E,B,E][E,A,D] [E,G,]2 [E,B,E][E,B,] | [E,E]2 [E,E][E,E][K:treble] [A,EA] [A,CA]3 | %15
 [B,G]2 [B,EG][B,EA] [B,EG][K:bass][B,E] [B,,A,]2 |[M:7/8] [E,G,]-[E,G,]-[E,G,]- [E,G,]3 z |] %17
V:3
 x8 | x8 | x8 | x8 | x8 | x8 | x8 | x8 | x8 | x8 | z2 B,2 B,2 z2 | x8 | z2 B,2 B,2 z E | x8 | x8 | %15
 x8 |[M:7/8] x7 |] %17
V:4
 x8 | x8 | x8 | x8 | x8 | x8 | x4[K:treble] x4 | x5[K:bass] x3 | x8 | x8 | [E,B,]2 E,2 E,2 z2 | %11
 x8 | x8 | x8 | x4[K:treble] x4 | x5[K:bass] x3 |[M:7/8] x7 |] %17

